X:315
N:See #313 for more history
T:Old Sibby
A:Munster
O:Irish
R:song air
H:Mr. MacGowan learned this air about 1840, from a very old woman, who brought
H:it from her native Munster.
L:1/8
M:C
K:C
"Slow"\
g>f|\
e2 dB AGED|G3 A B2 (3def|gede B2 A2|A4:|g>a|
b3 a gede|g2 a2 a2 ga|b3 a gede|g6 ag|
e2 dB AGED|G3 A B2 (3def|gede B2 A2|A6||


